Extension/src/pages/assets/icons/custom.svg

<svg height="60" viewBox="0 0 60 60" width="60" xmlns="http://www.w3.org/2000/svg"><g fill="none" fill-rule="evenodd"><rect fill="#90b4cd" height="60" rx="4" width="60"/><circle cx="36" cy="21.5" fill="#fff" r="1"/><g stroke="#fff" stroke-width="2"><path d="m26.8781933 30.28597c.2751075.2969176.4261469.684783.4261469 1.086023v11.8232065c0 .711559.8657794 1.0726751 1.3782345.5724357l3.325564-3.7796811c.4450268-.5296369.6904659-.7918071.6904659-1.3160673v-7.2972189c0-.40124.1537365-.7891054.4261469-1.0860497l9.5424267-10.2690433c.7147401-.7703809.1645521-2.0195749-.8927507-2.0195749h-23.5459642c-1.0572758 0-1.6101879 1.2465191-.8927507 2.0195749z"/><path d="m24.5 21.5h8.0622577" stroke-linecap="round"/></g></g></svg>

<?xml version="1.0" encoding="UTF-8"?>
<svg width="60px" height="60px" viewBox="0 0 60 60" version="1.1" xmlns="http://www.w3.org/2000/svg" xmlns:xlink="http://www.w3.org/1999/xlink">
    <!-- Generator: Sketch 51.3 (57544) - http://www.bohemiancoding.com/sketch -->
    <title>Group 4 Copy 2</title>
    <desc>Created with Sketch.</desc>
    <defs></defs>
    <g id="Page-1" stroke="none" stroke-width="1" fill="none" fill-rule="evenodd">
        <g id="Group-4-Copy-2">
            <g id="Group-16">
                <rect id="Rectangle" fill="#90B4CD" x="0" y="0" width="60" height="60" rx="4"></rect>
                <circle id="Oval-4" fill="#FFFFFF" cx="36" cy="21.5" r="1"></circle>
                <path d="M26.8781933,30.28597 C27.1533008,30.5828876 27.3043402,30.970753 27.3043402,31.371993 L27.3043402,43.1951995 C27.3043402,43.9067585 28.1701196,44.2678746 28.6825747,43.7676352 L32.0081387,39.9879541 C32.4531655,39.4583172 32.6986046,39.196147 32.6986046,38.6718868 L32.6986046,31.3746679 C32.6986046,30.9734279 32.8523411,30.5855625 33.1247515,30.2886182 L42.6671782,20.0195749 C43.3819183,19.249194 42.8317303,18 41.7744275,18 L18.2284633,18 C17.1711875,18 16.6182754,19.2465191 17.3357126,20.0195749 L26.8781933,30.28597 Z" id="Shape" stroke="#FFFFFF" stroke-width="2"></path>
                <path d="M24.5,21.5 L32.5622577,21.5" id="Line" stroke="#FFFFFF" stroke-width="2" stroke-linecap="round"></path>
            </g>
        </g>
    </g>
</svg>
